fs/music_note_2_16_regular.svg

<svg viewBox="0 0 16 16" fill="none" xmlns="http://www.w3.org/2000/svg" height="1em" width="1em">
  <path d="M12 5.20951V10.2675C11.7058 10.0974 11.3643 9.99998 11 9.99998C9.89543 9.99998 9 10.8954 9 12C9 13.1045 9.89543 14 11 14C12.1046 14 13 13.1045 13 12V1.92568C13 1.37245 12.4519 0.986213 11.9309 1.17228L5.53093 3.458C5.21254 3.57171 5 3.8733 5 4.21139V11.2675C4.70583 11.0974 4.36429 11 4 11C2.89543 11 2 11.8954 2 13C2 14.1045 2.89543 15 4 15C5.10457 15 6 14.1045 6 13V7.35237L12 5.20951ZM12 4.14765L6 6.2905V4.35233L12 2.20948V4.14765ZM11 11C11.5523 11 12 11.4477 12 12C12 12.5523 11.5523 13 11 13C10.4477 13 10 12.5523 10 12C10 11.4477 10.4477 11 11 11ZM4 12C4.55228 12 5 12.4477 5 13C5 13.5523 4.55228 14 4 14C3.44772 14 3 13.5523 3 13C3 12.4477 3.44772 12 4 12Z" fill="#212121"/>
</svg>

<svg viewBox="0 0 16 16" fill="none" xmlns="http://www.w3.org/2000/svg" height="1em" width="1em">
  <path d="M12 5.21v5.058A2 2 0 1 0 13 12V1.926a.8.8 0 0 0-1.07-.754l-6.4 2.286a.8.8 0 0 0-.53.753v7.056A2 2 0 1 0 6 13V7.353l6-2.142Zm0-1.062L6 6.29V4.351l6-2.143v1.939ZM11 11a1 1 0 1 1 0 2 1 1 0 0 1 0-2Zm-7 1a1 1 0 1 1 0 2 1 1 0 0 1 0-2Z" fill="#212121"/>
</svg>
